!!!OTL: Geistliches Lied ueber Psalm 43
!!!ARE: Europa, Mitteleuropa, Deutschland
!!!SCT: A0638B
!!!YEM: Copyright 1995, estate of Helmut Schaffrath.
**kern
*ICvox
*Ivox
*M4/2
*k[b-e-]
*g:
{2g
=1
1g
1b-
=2
1a
1dd
=3
1cc
1b-
=4
1a
2r}
{2g
=5
1g
1dd
=6
1cc
1dd
=7
1g
2a
2b-
=8
1cc
2r}
{2a
=9
1b-
1dd
=10
1cc
1b-
=11
1a
2r}
{2g
=12
2b-
2b-
2cc
2cc
=13
2dd
2dd
2b-}
{2dd
=14
2cc
2b-
2cc
2dd
=15
1b-
1a
=16
1.g}
==
!!!AGN: Romanze, Ballade, Lied, religioeses Lied
!! Baseler Tenor 1570
!!!ONB: ESAC (Essen Associative Code) Database: ALTDEU
!!!AMT: simple quadruple
!!!AIN: vox
!!!EED: Helmut Schaffrath
!!!EEV: 1.0
*-
